archdroid-icon-theme/Archdroid-Purple/places/scalable/folder-download.svg

<svg fill="#9C27B0" height="48" viewBox="0 0 48 48" width="48" xmlns="http://www.w3.org/2000/svg"><path d="m16 4c-2.21 0-4 1.79-4 4v24c0 2.21 1.79 4 4 4h24c2.21 0 4-1.79 4-4v-24c0-2.21-1.79-4-4-4zm8 7h8v8h.285156 5.714844l-10 10-10-10h5.714844.285156zm-16 1h-4v28c0 2.21 1.79 4 4 4h28v-4h-28z" fill="#9C27B0"/></svg>

<svg fill="#9C27B0" height="48" version="1.1" viewBox="0 0 48 48" width="48" xmlns="http://www.w3.org/2000/svg"><path d="m16 4c-2.21 0-4 1.79-4 4l0 24c0 2.21 1.79 4 4 4l24 0c2.21 0 4-1.79 4-4L44 8C44 5.79 42.21 4 40 4L16 4Zm8 7l8 0 0 8 .285156 0L38 19 28 29 18 19 23.714844 19 24 19 24 11ZM8 12L4 12 4 40c0 2.21 1.79 4 4 4l28 0 0-4-28 0 0-28z"/></svg>
